img/linkedin.svg

<svg width="120" height="120" viewBox="0 0 120 120" fill="none" xmlns="http://www.w3.org/2000/svg">
<path d="M0 8.595C0 3.8475 3.945 0 8.8125 0H111.188C116.055 0 120 3.8475 120 8.595V111.405C120 116.153 116.055 120 111.188 120H8.8125C3.945 120 0 116.153 0 111.405V8.595ZM37.0725 100.455V46.2675H19.065V100.455H37.0725ZM28.0725 38.865C34.35 38.865 38.2575 34.71 38.2575 29.505C38.145 24.1875 34.3575 20.145 28.1925 20.145C22.0275 20.145 18 24.195 18 29.505C18 34.71 21.9075 38.865 27.9525 38.865H28.0725ZM64.8825 100.455V70.1925C64.8825 68.5725 65.0025 66.9525 65.4825 65.7975C66.78 62.565 69.7425 59.2125 74.7225 59.2125C81.24 59.2125 83.8425 64.1775 83.8425 71.4675V100.455H101.85V69.375C101.85 52.725 92.97 44.985 81.12 44.985C71.565 44.985 67.2825 50.235 64.8825 53.9325V54.12H64.7625C64.8023 54.0574 64.8423 53.9949 64.8825 53.9325V46.2675H46.8825C47.1075 51.3525 46.8825 100.455 46.8825 100.455H64.8825Z" fill="white"/>
</svg>

<svg xmlns="http://www.w3.org/2000/svg" width="120" height="120" fill="none"><path fill="#fff" d="M0 8.595C0 3.847 3.945 0 8.813 0h102.375C116.055 0 120 3.848 120 8.595v102.81c0 4.748-3.945 8.595-8.812 8.595H8.812C3.946 120 0 116.153 0 111.405V8.595Zm37.072 91.86V46.267H19.065v54.188h18.007Zm-9-61.59c6.278 0 10.186-4.155 10.186-9.36-.113-5.317-3.9-9.36-10.066-9.36-6.165 0-10.192 4.05-10.192 9.36 0 5.205 3.907 9.36 9.953 9.36h.12Zm36.81 61.59V70.192c0-1.62.12-3.24.6-4.394 1.298-3.233 4.26-6.586 9.24-6.586 6.518 0 9.12 4.965 9.12 12.255v28.988h18.008v-31.08c0-16.65-8.88-24.39-20.73-24.39-9.555 0-13.838 5.25-16.238 8.947v.188h-.12l.12-.188v-7.665h-18c.226 5.085 0 54.188 0 54.188h18Z"/></svg>
